packages/ffe-icons/icons/open/400/sm/keyboard.svg

<svg xmlns="http://www.w3.org/2000/svg" height="20" viewBox="0 -960 960 960" width="20"><path d="M168-240q-29.7 0-50.85-21.15Q96-282.3 96-312v-336q0-29.7 21.15-50.85Q138.3-720 168-720h624q29.7 0 50.85 21.15Q864-677.7 864-648v336q0 29.7-21.15 50.85Q821.7-240 792-240H168Zm0-72h624v-336H168v336Zm203.96-24h215.757Q603-336 613.5-346.289q10.5-10.29 10.5-25.5Q624-387 613.662-397.5 603.323-408 588.04-408H372.283Q357-408 346.5-397.711q-10.5 10.29-10.5 25.5Q336-357 346.338-346.5 356.677-336 371.96-336ZM168-312v-336 336Zm107.789-240Q291-552 301.5-562.289q10.5-10.29 10.5-25.5Q312-603 301.711-613.5q-10.29-10.5-25.5-10.5Q261-624 250.5-613.711q-10.5 10.29-10.5 25.5Q240-573 250.289-562.5q10.29 10.5 25.5 10.5Zm102 0Q393-552 403.5-562.289q10.5-10.29 10.5-25.5Q414-603 403.711-613.5q-10.29-10.5-25.5-10.5Q363-624 352.5-613.711q-10.5 10.29-10.5 25.5Q342-573 352.289-562.5q10.29 10.5 25.5 10.5Zm102 0Q495-552 505.5-562.289q10.5-10.29 10.5-25.5Q516-603 505.711-613.5q-10.29-10.5-25.5-10.5Q465-624 454.5-613.711q-10.5 10.29-10.5 25.5Q444-573 454.289-562.5q10.29 10.5 25.5 10.5Zm102 0Q597-552 607.5-562.289q10.5-10.29 10.5-25.5Q618-603 607.711-613.5q-10.29-10.5-25.5-10.5Q567-624 556.5-613.711q-10.5 10.29-10.5 25.5Q546-573 556.289-562.5q10.29 10.5 25.5 10.5Zm102 0Q699-552 709.5-562.289q10.5-10.29 10.5-25.5Q720-603 709.711-613.5q-10.29-10.5-25.5-10.5Q669-624 658.5-613.711q-10.5 10.29-10.5 25.5Q648-573 658.289-562.5q10.29 10.5 25.5 10.5Zm-408 96Q291-456 301.5-466.289q10.5-10.29 10.5-25.5Q312-507 301.711-517.5q-10.29-10.5-25.5-10.5Q261-528 250.5-517.711q-10.5 10.29-10.5 25.5Q240-477 250.289-466.5q10.29 10.5 25.5 10.5Zm102 0Q393-456 403.5-466.289q10.5-10.29 10.5-25.5Q414-507 403.711-517.5q-10.29-10.5-25.5-10.5Q363-528 352.5-517.711q-10.5 10.29-10.5 25.5Q342-477 352.289-466.5q10.29 10.5 25.5 10.5Zm102 0Q495-456 505.5-466.289q10.5-10.29 10.5-25.5Q516-507 505.711-517.5q-10.29-10.5-25.5-10.5Q465-528 454.5-517.711q-10.5 10.29-10.5 25.5Q444-477 454.289-466.5q10.29 10.5 25.5 10.5Zm102 0Q597-456 607.5-466.289q10.5-10.29 10.5-25.5Q618-507 607.711-517.5q-10.29-10.5-25.5-10.5Q567-528 556.5-517.711q-10.5 10.29-10.5 25.5Q546-477 556.289-466.5q10.29 10.5 25.5 10.5Zm102 0Q699-456 709.5-466.289q10.5-10.29 10.5-25.5Q720-507 709.711-517.5q-10.29-10.5-25.5-10.5Q669-528 658.5-517.711q-10.5 10.29-10.5 25.5Q648-477 658.289-466.5q10.29 10.5 25.5 10.5Z"/></svg>

<svg xmlns="http://www.w3.org/2000/svg" height="20" viewBox="0 -960 960 960" width="20"><path d="M168-240q-29.7 0-50.85-21.15Q96-282.3 96-312v-336q0-29.7 21.15-50.85Q138.3-720 168-720h624q29.7 0 50.85 21.15Q864-677.7 864-648v336q0 29.7-21.15 50.85Q821.7-240 792-240H168Zm0-72h624v-336H168v336Zm203.96-24h215.76q15.28 0 25.78-10.29 10.5-10.29 10.5-25.5t-10.34-25.71Q603.32-408 588.04-408H372.28q-15.28 0-25.78 10.29-10.5 10.29-10.5 25.5t10.34 25.71q10.34 10.5 25.62 10.5ZM168-312v-336 336Zm107.79-240q15.21 0 25.71-10.29t10.5-25.5q0-15.21-10.29-25.71t-25.5-10.5q-15.21 0-25.71 10.29t-10.5 25.5q0 15.21 10.29 25.71t25.5 10.5Zm102 0q15.21 0 25.71-10.29t10.5-25.5q0-15.21-10.29-25.71t-25.5-10.5q-15.21 0-25.71 10.29t-10.5 25.5q0 15.21 10.29 25.71t25.5 10.5Zm102 0q15.21 0 25.71-10.29t10.5-25.5q0-15.21-10.29-25.71t-25.5-10.5q-15.21 0-25.71 10.29t-10.5 25.5q0 15.21 10.29 25.71t25.5 10.5Zm102 0q15.21 0 25.71-10.29t10.5-25.5q0-15.21-10.29-25.71t-25.5-10.5q-15.21 0-25.71 10.29t-10.5 25.5q0 15.21 10.29 25.71t25.5 10.5Zm102 0q15.21 0 25.71-10.29t10.5-25.5q0-15.21-10.29-25.71t-25.5-10.5q-15.21 0-25.71 10.29t-10.5 25.5q0 15.21 10.29 25.71t25.5 10.5Zm-408 96q15.21 0 25.71-10.29t10.5-25.5q0-15.21-10.29-25.71t-25.5-10.5q-15.21 0-25.71 10.29t-10.5 25.5q0 15.21 10.29 25.71t25.5 10.5Zm102 0q15.21 0 25.71-10.29t10.5-25.5q0-15.21-10.29-25.71t-25.5-10.5q-15.21 0-25.71 10.29t-10.5 25.5q0 15.21 10.29 25.71t25.5 10.5Zm102 0q15.21 0 25.71-10.29t10.5-25.5q0-15.21-10.29-25.71t-25.5-10.5q-15.21 0-25.71 10.29t-10.5 25.5q0 15.21 10.29 25.71t25.5 10.5Zm102 0q15.21 0 25.71-10.29t10.5-25.5q0-15.21-10.29-25.71t-25.5-10.5q-15.21 0-25.71 10.29t-10.5 25.5q0 15.21 10.29 25.71t25.5 10.5Zm102 0q15.21 0 25.71-10.29t10.5-25.5q0-15.21-10.29-25.71t-25.5-10.5q-15.21 0-25.71 10.29t-10.5 25.5q0 15.21 10.29 25.71t25.5 10.5Z"/></svg>
